X:1
T:Ship That Never Returned
M:4/4
L:1/8
K:D
 DE| F3 A A2 GF| G3 AB cd B| A2 d2 e2 d2| c6| ee| d3 B B2 FF| G3 AB cd B|\
 A3 F D2 E2| F6| DE| F3 A A2 GF| G3 AB cd B| A2 d2 e2 d2| c6| ee| d3 B B2 FF|\
 G3 AB cd B| A3 FD D E2| F6| ^GG| AA F2 A3 d| ccB-c d3 F| E2 ^GG B2 d2|\
 c6| ee| d3 B B2 FF| G3 AB cd B| A2 z FD D z E| F6||
